build/images/discount-p.svg

<?xml version="1.0" encoding="UTF-8"?>
<svg width="24px" height="24px" viewBox="0 0 24 24" version="1.1" xmlns="http://www.w3.org/2000/svg" xmlns:xlink="http://www.w3.org/1999/xlink">
    <!-- Generator: sketchtool 63.1 (101010) - https://sketch.com -->
    <title>5B78057D-4667-484F-B4F4-38E1157435E4</title>
    <desc>Created with sketchtool.</desc>
    <g id="Page-1" stroke="none" stroke-width="1" fill="none" fill-rule="evenodd">
        <g id="Kupa-shop---design" transform="translate(-587.000000, -1410.000000)" fill="#000000" fill-rule="nonzero">
            <g id="projects" transform="translate(359.000000, 895.000000)">
                <g id="discount" transform="translate(228.000000, 515.000000)">
                    <path d="M23.7940312,0.20596875 C23.5194844,-0.068625 23.0742188,-0.068625 22.799625,0.20596875 L20.7516562,2.2539375 C20.62575,2.1939375 20.4929063,2.14560937 20.3542031,2.11096875 L13.9899375,0.538640625 C13.2752813,0.36 12.5076563,0.572578125 11.9867344,1.0935 L0.616875,12.4446563 C-0.205546875,13.267125 -0.205546875,14.6054063 0.616875,15.4279219 L8.57217188,23.3831719 C9.39464063,24.2056406 10.7329219,24.2056875 11.5554375,23.3831719 L22.9065937,12.0132656 C23.4275156,11.4923438 23.6401406,10.7247188 23.4614062,10.0100156 L21.889125,3.64579688 C21.8544375,3.50714063 21.8061562,3.37425 21.7461562,3.24834375 L23.794125,1.200375 C24.068625,0.92578125 24.068625,0.4805625 23.7940312,0.20596875 Z M22.0970156,10.3511719 C22.1565938,10.5893906 22.0857188,10.8452344 21.9120938,11.0189062 L10.5609375,22.3887656 C10.2867656,22.6629375 9.84065625,22.6629375 9.56648438,22.3887656 L1.61123438,14.4334687 C1.3370625,14.1592969 1.3370625,13.7131875 1.61123438,13.4390156 L12.9811406,2.08790625 C13.114125,1.95492187 13.2953437,1.88221875 13.4799375,1.88221875 C13.536375,1.88221875 13.5931406,1.88901562 13.648875,1.9029375 L19.6268438,3.37870312 L17.9334844,5.0720625 C17.1495,4.69865625 16.1811094,4.835625 15.5330156,5.48371875 C14.7105,6.30623438 14.7105,7.64446875 15.5330156,8.46698438 C15.9442031,8.87821875 16.4844375,9.08385938 17.024625,9.08385938 C17.5647656,9.08385938 18.105,8.87826563 18.5161875,8.46698438 C19.1644219,7.81879688 19.3013438,6.85045313 18.9278438,6.06646875 L20.6212031,4.37310938 L22.0970156,10.3511719 Z M17.5218281,7.472625 C17.2477031,7.74675 16.8015937,7.74679688 16.5274219,7.472625 C16.2532969,7.1985 16.2532969,6.75234375 16.5274219,6.47821875 C16.6645312,6.34110938 16.8445313,6.272625 17.024625,6.272625 C17.204625,6.272625 17.3847188,6.34115625 17.5217344,6.47817188 L17.5217813,6.47821875 L17.5218281,6.47826563 C17.796,6.75239063 17.7959531,7.1985 17.5218281,7.472625 Z" id="Shape"></path>
                </g>
            </g>
        </g>
    </g>
</svg>

<svg width="24" height="24" xmlns="http://www.w3.org/2000/svg"><g id="Page-1" stroke="none" stroke-width="1" fill="none" fill-rule="evenodd"><g id="Kupa-shop---design" transform="translate(-587 -1410)" fill="#000" fill-rule="nonzero"><g id="projects" transform="translate(359 895)"><g id="discount" transform="translate(228 515)"><path d="M23.794.206a.703.703 0 00-.994 0l-2.048 2.048a2.115 2.115 0 00-.398-.143L13.99.539a2.12 2.12 0 00-2.003.554L.617 12.446a2.112 2.112 0 000 2.983l7.955 7.955a2.11 2.11 0 002.983 0l11.352-11.37a2.12 2.12 0 00.554-2.003L21.89 3.646a2.119 2.119 0 00-.143-.398L23.794 1.2a.703.703 0 000-.994zm-1.697 10.145a.707.707 0 01-.185.668l-11.351 11.37a.704.704 0 01-.995 0l-7.955-7.956a.704.704 0 010-.994l11.37-11.351a.707.707 0 01.668-.185l5.978 1.476-1.694 1.693a2.113 2.113 0 00-2.4.412 2.112 2.112 0 000 2.983c.411.411.951.617 1.492.617.54 0 1.08-.206 1.491-.617a2.113 2.113 0 00.412-2.4l1.693-1.694 1.476 5.978zm-4.575-2.878a.704.704 0 110-.995.704.704 0 010 .995z" id="Shape"/></g></g></g></g></svg>
